resources/img/snc.svg

<svg width="215" height="51" viewBox="0 0 215 51" fill="none" xmlns="http://www.w3.org/2000/svg">
<path d="M54.719 9.932C58.229 10.715 62.576 11.687 62.576 16.061C62.576 20.381 59.309 23.405 53.018 23.405C47.78 23.405 44.513 20.354 44.513 16.439V16.007H49.697V16.439C49.697 18.329 51.722 18.977 53.747 18.977C55.664 18.977 57.608 18.41 57.608 16.439C57.608 14.819 55.286 14.279 52.586 13.631C49.157 12.821 44.864 11.795 44.864 7.718C44.864 3.479 48.401 0.724999 53.855 0.724999C58.877 0.724999 62.387 3.614 62.387 7.718V8.15H57.608V7.718C57.608 6.071 55.448 5.072 53.369 5.072C51.965 5.072 49.913 5.747 49.913 7.313C49.913 8.852 52.127 9.365 54.719 9.932ZM63.3843 1.157H83.4453V5.531H75.8313V23H70.9983V5.531H63.3843V1.157ZM98.4786 14.657L103.636 23H98.0736L93.7536 15.143C90.2976 15.143 89.7576 15.143 89.7576 15.143V23H84.9246V1.157H95.0226C99.7746 1.157 102.691 4.586 102.691 8.204C102.691 10.985 101.044 13.685 98.4786 14.657ZM89.7576 10.904H95.4006C97.0746 10.904 98.4516 9.878 98.4516 8.204C98.4516 6.503 97.0746 5.396 95.4006 5.396H89.7576V10.904ZM118.732 23L117.031 18.491H108.985L107.284 23H102.694L110.713 1.157H115.789L123.349 23H118.732ZM110.497 14.468H115.519L113.008 7.826L110.497 14.468ZM120.074 1.157H140.135V5.531H132.521V23H127.688V5.531H120.074V1.157ZM141.614 1.157H157.22V5.531H146.339V9.419L155.411 9.473V13.82L146.339 13.793V18.653H157.22V23H141.614V1.157ZM170.582 12.254H179.519V22.973H176.576L176.171 21.056C174.335 22.622 171.959 23.405 169.367 23.405C163.67 23.405 158.972 19.517 158.972 12.065C158.972 4.775 163.67 0.697999 169.367 0.697999C174.389 0.697999 178.331 3.695 179.438 8.879H174.578C173.714 6.395 171.77 5.234 169.367 5.234C166.154 5.234 163.67 7.421 163.67 12.065C163.67 16.763 166.127 18.896 169.367 18.896C171.635 18.896 173.552 17.843 174.497 15.494H170.582V12.254ZM185.99 1.157V23H181.508V1.157H185.99ZM203.48 14.198H208.421C207.584 20.3 203.264 23.405 198.134 23.405C192.437 23.405 187.739 19.517 187.739 12.065C187.739 4.775 192.437 0.697999 198.134 0.697999C203.291 0.697999 207.287 3.857 208.313 9.284H203.264C202.697 6.557 200.645 5.234 198.134 5.234C194.921 5.234 192.437 7.394 192.437 12.065C192.437 16.763 194.894 18.896 198.134 18.896C200.861 18.896 203.129 17.384 203.48 14.198Z" fill="#F51B55"/>
<path d="M60.227 40.198H65.168C64.331 46.3 60.011 49.405 54.881 49.405C49.184 49.405 44.486 45.517 44.486 38.065C44.486 30.775 49.184 26.698 54.881 26.698C60.038 26.698 64.034 29.857 65.06 35.284H60.011C59.444 32.557 57.392 31.234 54.881 31.234C51.668 31.234 49.184 33.394 49.184 38.065C49.184 42.763 51.641 44.896 54.881 44.896C57.608 44.896 59.876 43.384 60.227 40.198ZM80.3116 40.657L85.4686 49H79.9066L75.5866 41.143C72.1306 41.143 71.5906 41.143 71.5906 41.143V49H66.7576V27.157H76.8556C81.6076 27.157 84.5236 30.586 84.5236 34.204C84.5236 36.985 82.8766 39.685 80.3116 40.657ZM71.5906 36.904H77.2336C78.9076 36.904 80.2846 35.878 80.2846 34.204C80.2846 32.503 78.9076 31.396 77.2336 31.396H71.5906V36.904ZM86.8494 27.157H102.455V31.531H91.5744V35.419L100.646 35.473V39.82L91.5744 39.793V44.653H102.455V49H86.8494V27.157ZM118.68 49L116.979 44.491H108.933L107.232 49H102.642L110.661 27.157H115.737L123.297 49H118.68ZM110.445 40.468H115.467L112.956 33.826L110.445 40.468ZM120.021 27.157H140.082V31.531H132.468V49H127.635V31.531H120.021V27.157ZM146.333 27.157V49H141.851V27.157H146.333ZM159.774 49H154.59L147.381 27.157H151.971L157.182 42.925L162.42 27.157H167.01L159.774 49ZM168.06 27.157H183.666V31.531H172.785V35.419L181.857 35.473V39.82L172.785 39.793V44.653H183.666V49H168.06V27.157Z" fill="#2F2F2F"/>
<mask id="mask0_143_10836" style="mask-type:luminance" maskUnits="userSpaceOnUse" x="0" y="1" width="40" height="50">
<path d="M40 1.95605L0 1.95605L0 50.4409L40 50.4409L40 1.95605Z" fill="white"/>
</mask>
<g mask="url(#mask0_143_10836)">
<path d="M15.7422 27.7884C14.6309 27.7884 13.5758 28.0011 12.577 28.441C11.578 28.8807 10.6778 29.4623 9.904 30.2C9.13023 30.9376 8.51124 31.7887 8.06105 32.7392C7.61088 33.6896 7.38578 34.6968 7.38578 35.7748C7.38578 37.2643 7.76562 38.5552 8.5253 39.6759C9.28499 40.7966 10.312 41.6619 11.5922 42.3144C12.8864 42.9528 14.3073 43.279 15.8548 43.279C17.332 43.279 18.5981 43.052 19.6673 42.5981C20.7365 42.1442 21.6368 41.5484 22.3684 40.7966C23.0999 40.0589 23.6767 39.2219 24.0847 38.3141L28.6287 42.2718C27.5595 44.3429 25.8713 46.0878 23.5642 47.5347C21.257 48.9816 18.3589 49.705 14.87 49.705C12.0846 49.705 9.56634 49.1235 7.31544 47.946C5.06454 46.7686 3.27788 45.1657 1.96954 43.1088C0.661203 41.066 0 38.7396 0 36.1437C0 34.1577 0.436116 32.3419 1.32241 30.6681C2.2087 28.9942 3.39043 27.5473 4.88165 26.2989C6.37288 25.0647 8.04699 24.0718 9.88995 23.32C11.7329 22.5823 13.632 22.1851 15.6016 22.1426L15.7422 27.7884ZM30.3028 22.1426L36.8727 22.1426L29.5009 41.0377C27.6299 40.2859 25.7447 39.5198 23.8737 38.768C26.012 33.2215 28.1645 27.689 30.3028 22.1426Z" fill="#F51B55"/>
<path d="M39.1519 49.0237C38.7439 49.0237 38.0827 49.0237 37.1823 49.0237C36.2821 49.0237 35.3536 49.0237 34.3828 49.0237C33.4262 49.0237 32.2585 49.0237 30.908 49.0237L10.1575 21.1491C9.79171 20.5675 9.32744 19.8298 8.77878 18.922C8.23012 18.014 7.75181 16.9927 7.37197 15.8578C6.97805 14.723 6.79517 13.5599 6.79517 12.3541C6.79517 10.6234 7.23128 8.96371 8.08944 7.4033C8.94759 5.82871 10.2138 4.53782 11.8597 3.50228C13.5197 2.46673 15.5737 1.95605 18.0356 1.95605C20.6523 1.95605 22.9736 2.48092 25.0135 3.53064C27.0392 4.58038 28.6852 5.85708 29.9513 7.33237L26.3921 12.0987C25.126 10.8646 23.888 9.87159 22.7063 9.11975C21.5245 8.38211 20.3569 7.99909 19.2033 7.99909C17.5714 7.99909 16.3193 8.49558 15.4612 9.48857C14.603 10.4816 14.1668 11.6306 14.1668 12.9498C14.1668 13.6166 14.3217 14.3117 14.6311 15.0493C14.9406 15.787 15.2502 16.4395 15.5878 17.0069C15.9113 17.5602 16.1223 17.9289 16.2067 18.085L39.1519 49.0237Z" fill="#F51B55"/>
<path d="M11.3812 22.8066C10.4527 23.0904 9.35541 23.5018 8.18776 24.1118C7.27333 24.5799 6.49958 25.0906 5.83838 25.5587C7.07637 27.2184 8.31437 28.8923 9.55237 30.5519C10.0166 30.0555 10.7201 29.403 11.7189 28.8497C13.0694 28.0979 14.3356 27.8709 15.0952 27.8C13.8713 26.1403 12.6333 24.4664 11.3812 22.8066Z" fill="#BD1441"/>
<path d="M23.6223 39.2217C23.2706 39.8033 22.6516 40.6545 21.6668 41.4204C20.5554 42.3 19.444 42.7113 18.7688 42.8957C20.063 44.6122 21.3573 46.3287 22.6657 48.0451C23.4816 47.6053 24.4523 46.9954 25.4511 46.1584C26.2389 45.4917 26.872 44.8392 27.3785 44.2433C26.1123 42.5695 24.8603 40.8956 23.6223 39.2217Z" fill="#AD133C"/>
</g>
</svg>

<svg width="215" height="51" fill="none" xmlns="http://www.w3.org/2000/svg"><path d="M54.719 9.932c3.51.783 7.857 1.755 7.857 6.129 0 4.32-3.267 7.344-9.558 7.344-5.238 0-8.505-3.051-8.505-6.966v-.432h5.184v.432c0 1.89 2.025 2.538 4.05 2.538 1.917 0 3.861-.567 3.861-2.538 0-1.62-2.322-2.16-5.022-2.808-3.429-.81-7.722-1.836-7.722-5.913 0-4.239 3.537-6.993 8.991-6.993 5.022 0 8.532 2.889 8.532 6.993v.432h-4.779v-.432c0-1.647-2.16-2.646-4.239-2.646-1.404 0-3.456.675-3.456 2.241 0 1.539 2.214 2.052 4.806 2.619zm8.665-8.775h20.061v4.374h-7.614V23h-4.833V5.531h-7.614V1.157zm35.095 13.5L103.636 23h-5.562l-4.32-7.857h-3.996V23h-4.833V1.157h10.098c4.752 0 7.668 3.429 7.668 7.047 0 2.781-1.647 5.481-4.212 6.453zm-8.721-3.753H95.4c1.674 0 3.05-1.026 3.05-2.7 0-1.701-1.376-2.808-3.05-2.808h-5.643v5.508zM118.732 23l-1.701-4.509h-8.046L107.284 23h-4.59l8.019-21.843h5.076L123.349 23h-4.617zm-8.235-8.532h5.022l-2.511-6.642-2.511 6.642zm9.577-13.311h20.061v4.374h-7.614V23h-4.833V5.531h-7.614V1.157zm21.54 0h15.606v4.374h-10.881v3.888l9.072.054v4.347l-9.072-.027v4.86h10.881V23h-15.606V1.157zm28.968 11.097h8.937v10.719h-2.943l-.405-1.917c-1.836 1.566-4.212 2.349-6.804 2.349-5.697 0-10.395-3.888-10.395-11.34 0-7.29 4.698-11.367 10.395-11.367 5.022 0 8.964 2.997 10.071 8.181h-4.86c-.864-2.484-2.808-3.645-5.211-3.645-3.213 0-5.697 2.187-5.697 6.831 0 4.698 2.457 6.831 5.697 6.831 2.268 0 4.185-1.053 5.13-3.402h-3.915v-3.24zM185.99 1.157V23h-4.482V1.157h4.482zm17.49 13.041h4.941c-.837 6.102-5.157 9.207-10.287 9.207-5.697 0-10.395-3.888-10.395-11.34 0-7.29 4.698-11.367 10.395-11.367 5.157 0 9.153 3.159 10.179 8.586h-5.049c-.567-2.727-2.619-4.05-5.13-4.05-3.213 0-5.697 2.16-5.697 6.831 0 4.698 2.457 6.831 5.697 6.831 2.727 0 4.995-1.512 5.346-4.698z" fill="#F51B55"/><path d="M60.227 40.198h4.941c-.837 6.102-5.157 9.207-10.287 9.207-5.697 0-10.395-3.888-10.395-11.34 0-7.29 4.698-11.367 10.395-11.367 5.157 0 9.153 3.159 10.179 8.586h-5.049c-.567-2.727-2.619-4.05-5.13-4.05-3.213 0-5.697 2.16-5.697 6.831 0 4.698 2.457 6.831 5.697 6.831 2.727 0 4.995-1.512 5.346-4.698zm20.085.459L85.469 49h-5.562l-4.32-7.857H71.59V49h-4.833V27.157h10.098c4.752 0 7.668 3.429 7.668 7.047 0 2.781-1.647 5.481-4.212 6.453zm-8.721-3.753h5.643c1.674 0 3.05-1.026 3.05-2.7 0-1.701-1.376-2.808-3.05-2.808H71.59v5.508zm15.258-9.747h15.606v4.374h-10.88v3.888l9.071.054v4.347l-9.072-.027v4.86h10.881V49H86.849V27.157zM118.68 49l-1.701-4.509h-8.046L107.232 49h-4.59l8.019-21.843h5.076L123.297 49h-4.617zm-8.235-8.532h5.022l-2.511-6.642-2.511 6.642zm9.576-13.311h20.061v4.374h-7.614V49h-4.833V31.531h-7.614v-4.374zm26.312 0V49h-4.482V27.157h4.482zM159.774 49h-5.184l-7.209-21.843h4.59l5.211 15.768 5.238-15.768h4.59L159.774 49zm8.286-21.843h15.606v4.374h-10.881v3.888l9.072.054v4.347l-9.072-.027v4.86h10.881V49H168.06V27.157z" fill="#2F2F2F"/><mask id="a" style="mask-type:luminance" maskUnits="userSpaceOnUse" x="0" y="1" width="40" height="50"><path d="M40 1.956H0v48.485h40V1.956z" fill="#fff"/></mask><g mask="url(#a)"><path d="M15.742 27.788a7.76 7.76 0 00-3.165.653A9.226 9.226 0 009.904 30.2a8.553 8.553 0 00-1.843 2.54 6.988 6.988 0 00-.675 3.035c0 1.49.38 2.78 1.14 3.9.759 1.122 1.786 1.987 3.066 2.64 1.294.638 2.715.964 4.263.964 1.477 0 2.743-.227 3.812-.68 1.07-.455 1.97-1.05 2.701-1.802a8.435 8.435 0 001.717-2.483l4.544 3.958c-1.07 2.07-2.758 3.816-5.065 5.263-2.307 1.447-5.205 2.17-8.694 2.17-2.785 0-5.304-.581-7.555-1.759-2.25-1.177-4.037-2.78-5.345-4.837C.66 41.066 0 38.739 0 36.144c0-1.986.436-3.802 1.322-5.476a14.487 14.487 0 013.56-4.37A19.153 19.153 0 019.89 23.32a16.18 16.18 0 015.712-1.177l.14 5.645zm14.56-5.645h6.57l-7.371 18.895c-1.871-.752-3.756-1.518-5.627-2.27 2.138-5.547 4.29-11.079 6.429-16.625z" fill="#F51B55"/><path d="M39.152 49.024h-8.244l-20.75-27.875a153 153 0 01-1.38-2.227 15.307 15.307 0 01-1.406-3.064 10.576 10.576 0 01-.577-3.504c0-1.73.436-3.39 1.294-4.95.859-1.575 2.125-2.866 3.77-3.902 1.66-1.035 3.715-1.546 6.177-1.546 2.616 0 4.938.525 6.977 1.575 2.026 1.05 3.672 2.326 4.938 3.801L26.392 12.1c-1.266-1.234-2.504-2.227-3.686-2.98C21.525 8.383 20.356 8 19.203 8c-1.632 0-2.884.497-3.742 1.49-.858.993-1.294 2.142-1.294 3.46 0 .668.155 1.363.464 2.1.31.738.62 1.39.957 1.958.323.553.534.922.619 1.078l22.945 30.939z" fill="#F51B55"/><path d="M11.381 22.807c-.928.283-2.026.695-3.193 1.305a19.07 19.07 0 00-2.35 1.447c1.238 1.66 2.476 3.333 3.714 4.993a8.782 8.782 0 012.167-1.702 8.639 8.639 0 013.376-1.05 572.027 572.027 0 00-3.714-4.993z" fill="#BD1441"/><path d="M23.622 39.222a8.134 8.134 0 01-1.955 2.198 8.223 8.223 0 01-2.898 1.476c1.294 1.716 2.588 3.433 3.897 5.15a16.6 16.6 0 002.785-1.888 16.447 16.447 0 001.927-1.915 578.962 578.962 0 01-3.756-5.021z" fill="#AD133C"/></g></svg>
